img/content/facebook.svg

<svg width="14" height="14" viewBox="0 0 14 14" fill="none" xmlns="http://www.w3.org/2000/svg">
<path d="M10.5 1.16675H8.75C7.97645 1.16675 7.23458 1.47404 6.6876 2.02102C6.14062 2.568 5.83333 3.30987 5.83333 4.08342V5.83342H4.08333V8.16675H5.83333V12.8334H8.16666V8.16675H9.91666L10.5 5.83342H8.16666V4.08342C8.16666 3.92871 8.22812 3.78033 8.33752 3.67094C8.44692 3.56154 8.59529 3.50008 8.75 3.50008H10.5V1.16675Z" fill="#101010"/>
</svg>

<svg width="14" height="14" viewBox="0 0 14 14" xmlns="http://www.w3.org/2000/svg" fill="none"><path d="M10.5 1.167h-1.75c-.774 0-1.515.307-2.062.854-.547.547-.854 1.289-.854 2.062v1.75h-1.75v2.333h1.75v4.667h2.333v-4.667h1.75l.583-2.333h-2.333v-1.75c0-.155.061-.303.171-.412.109-.109.258-.171.412-.171h1.75v-2.333z" fill="#101010"/></svg>
